X:100
T:Springlek efter Fjös Erik
R:Polska
Z:Anton Teljebäck 2007-12-09
S:efter [[Personer/Fjös Erik]]
O:Lima, Dalarna
M:3/4
L:1/8
K:D
vD>F A2 A2 | A>c d2 d2 | d>B B>G G>F | D>F A<F D2- | 
D>F A2 A2 | A>c e2 e>c | uA>(g (3g)(eg) (3f(df) | (3e(ce) d4 :|
uA>(g (3g)(eg) (3f(df) | ((3ef^g) a2 a2 | uA>(g (3g)(eg) (3f(df) | ((3ece) d2 B2 | 
uA>(g (3g)(eg) (3f(df) | ((3ef^g) a2 a>f |v(3d(ef) (3g(eg) (3f(df) | (3e(ce) d4 :|
(:musicend:)

(:music:)
